html/assets/images/dynamic/Masdar Free Zone/linkedin.svg

<svg xmlns="http://www.w3.org/2000/svg" width="18" height="18"
                                            viewBox="0 0 18 18" fill="none">
                                            <path
                                                d="M5.80011 7.39987V12.7332M12.2001 12.7332V10.0665C12.2001 8.88833 11.245 7.9332 10.0668 7.9332C8.88857 7.9332 7.93345 8.88833 7.93345 10.0665V12.7332V7.39987M5.26678 5.79987H6.33345M2.60011 1.5332H15.4001C15.9892 1.5332 16.4668 2.01077 16.4668 2.59987V15.3999C16.4668 15.989 15.9892 16.4665 15.4001 16.4665H2.60011C2.01101 16.4665 1.53345 15.989 1.53345 15.3999V2.59987C1.53345 2.01077 2.01101 1.5332 2.60011 1.5332Z"
                                                stroke="#ffffff" stroke-width="1.5" />
                                        </svg>

<svg xmlns="http://www.w3.org/2000/svg" width="18" height="18" fill="none"><path d="M5.8 7.4v5.333m6.4 0v-2.667a2.133 2.133 0 00-4.267 0v2.667V7.4M5.267 5.8h1.066M2.6 1.533h12.8c.59 0 1.067.478 1.067 1.067v12.8c0 .589-.478 1.066-1.067 1.066H2.6A1.067 1.067 0 011.533 15.4V2.6c0-.59.478-1.067 1.067-1.067z" stroke="#fff" stroke-width="1.5"/></svg>
